packages/foundations/assets/icons/functional/images/devices/camera_24.svg

<svg width="24" height="24" viewBox="0 0 24 24" fill="none" xmlns="http://www.w3.org/2000/svg">
<g clip-path="url(#clip0_185_763)">
<path fill-rule="evenodd" clip-rule="evenodd" d="M9.6 4.5C8.96095 4.5 8.19194 4.83834 7.76168 5.30461L6.504 6.666L4.5 6.66667C3.11929 6.66667 2 7.78595 2 9.16667V17C2 18.3807 3.11929 19.5 4.5 19.5H19.5C20.8807 19.5 22 18.3807 22 17V9.00229C22 7.711 20.8255 6.66667 19.5 6.66667L17.527 6.666L16.2224 5.28343C15.7502 4.78338 15.0927 4.5 14.4049 4.5H9.6ZM14.4049 6.5C14.5425 6.5 14.674 6.55668 14.7684 6.65669L16.3708 8.3533C16.5597 8.55331 16.8227 8.66667 17.0978 8.66667H19.5C19.7761 8.66667 20 8.89052 20 9.16667V17C20 17.2761 19.7761 17.5 19.5 17.5H4.5C4.22386 17.5 4 17.2761 4 17V9.16667C4 8.89052 4.22386 8.66667 4.5 8.66667H6.94276C7.22192 8.66667 7.48837 8.54998 7.67768 8.34482L9.23152 6.66092C9.32617 6.55834 9.4594 6.5 9.59898 6.5H14.4049ZM12 9C10.067 9 8.5 10.567 8.5 12.5C8.5 14.433 10.067 16 12 16C13.933 16 15.5 14.433 15.5 12.5C15.5 10.567 13.933 9 12 9ZM12 11C12.8284 11 13.5 11.6716 13.5 12.5C13.5 13.3284 12.8284 14 12 14C11.1716 14 10.5 13.3284 10.5 12.5C10.5 11.6716 11.1716 11 12 11Z" fill="#1A1C1F"/>
</g>
<defs>
<clipPath id="clip0_185_763">
<rect width="24" height="24" fill="white"/>
</clipPath>
</defs>
</svg>

<svg xmlns="http://www.w3.org/2000/svg" width="24" height="24" fill="none"><g clip-path="url(#a)"><path fill="#1A1C1F" fill-rule="evenodd" d="M9.6 4.5c-.639 0-1.408.338-1.838.805L6.504 6.666H4.5a2.5 2.5 0 0 0-2.5 2.5V17a2.5 2.5 0 0 0 2.5 2.5h15A2.5 2.5 0 0 0 22 17V9.002c0-1.291-1.174-2.335-2.5-2.335l-1.973-.001-1.305-1.383a2.5 2.5 0 0 0-1.817-.783zm4.805 2a.5.5 0 0 1 .363.157l1.603 1.696a1 1 0 0 0 .727.314H19.5a.5.5 0 0 1 .5.5V17a.5.5 0 0 1-.5.5h-15A.5.5 0 0 1 4 17V9.167a.5.5 0 0 1 .5-.5h2.443a1 1 0 0 0 .735-.322L9.232 6.66a.5.5 0 0 1 .367-.161zM12 9a3.5 3.5 0 1 0 0 7 3.5 3.5 0 0 0 0-7m0 2a1.5 1.5 0 1 1 0 3 1.5 1.5 0 0 1 0-3" clip-rule="evenodd"/></g><defs><clipPath id="a"><path fill="#fff" d="M0 0h24v24H0z"/></clipPath></defs></svg>
